!!!!SEGMENT: pl-sa--564-a-ix-44--001_anonim--polonez-es.krn
!!!cenid: 18xx:588
!!!COM: Anonim
!!!COM-rismID: pe30004985
!!!CDT:
!!!CNT:
!!!OTL: Polonez Es
!!!PDT:
!!!AGN: Secular; Polonaise
!!!SMS-siglum: PL-SA
!!!SMS-shelfmark: 564/A IX 44
!!!SMS-shelfwork: 001 W
!!!SMS-variant:
!!!SMS-altvar:
!!!NIFC-rismSourceID: 1001065436
!!!NIFC-rismChildID: 1001065436
!!!NIFC-islandoraID:
!!!URL-pdf-islandora:
!!!URL-scan: https://bc.bdsandomierz.pl/dlibra/publication/1320/edition/1288/content @EN{Scan in the Sandomierz Diocese Digital Library} @PL{Skany w portalu Cyfrowa Biblioteka Diecezjalna w Sandomierzu}
!!!ONB-nifc: Str. 1
!!!AIN: 2 empty
!!!key:
**kern	**kern	**dynam
*part2	*part1	*part1
*staff2	*staff1	*
*Iempty	*Iempty	*
*I"	*I"	*
*>[A,B,B,C,C]	*>[A,B,B,C,C]	*>[A,B,B,C,C]
*clefF4	*clefG2	*
*k[b-e-a-]	*k[b-e-a-]	*
*E-:	*E-:	*
*M3/4	*M3/4	*
=1	=1	=1
*>A	*>A	*>A
!	!LO:TX:a:t=No. 2do	!
!	!LO:TX:a:t=Polon	!
!	!	!LO:DY:b:t=f&colon;
8F\L	8ee-\L	f
(32BB-\LL	(32b-\LL	.
32C\	32cc\	.
32D\)	32dd\)	.
32E-\JJJ	32ee-\JJJ	.
!LO:TX:a:t=P:problem=mixed beam	!	!
8EE-/L	16ee-\LL	.
.	16ee-\J	.
8E-\J	8ee-T\J	.
!LO:TX:a:t=P:problem=mixed beam	!	!
8BB-/L	16ff\LL	.
.	16ff\J	.
8B-\J	8ffT\J	.
=2	=2	=2
8.B-\L	8.bb-\L	.
16G\Jk	16gg\Jk	.
8E-\L	8ee-\L	.
8E-\	8ee-\	.
(8.E-\	(8.ee-\	.
16D\Jk)	16dd\Jk)	.
=3	=3	=3
8r	16dd\LL	.
.	16cc\JJ	.
8C/ 8F/ 8A-/	4cc\	.
*tremolo	*	*
8C/L 8F/ 8A-/	.	.
8C/ 8F/ 8A-/	8ff\L	.
8C/ 8F/ 8A-/	8aa-\	.
8C/J 8F/ 8A-/	8dd\J	.
*Xtremolo	*	*
=4	=4	=4
!	!	!LO:DY:b:t=f&colon;
8E-/L	8ee-\L	f
*	*Xtuplet	*
!	!LO:TUP:a:klamra łukowa	!
8BB-/J	24b-\L	.
.	24cc\	.
.	24dd\JJ	.
8E-/L	8ee-\L	.
!	!LO:TUP:a:klamra łukowa	!
8BB-/J	24b-\L	.
.	24cc\	.
.	24dd\JJ	.
4EE-/ 4E-/	4ee-\	.
=5	=5	=5
*>B	*>B	*>B
*clefG2	*	*
!LO:TX:a:t=[segno]:problem=segno na kresce taktowej	!LO:TX:a:t=[segno]:problem=segno na kresce taktowej	!
8r	16ee-\LL	.
.	16ff\JJ	.
8e-/ 8g/ 8b-/	4ee-\ 4gg\	.
*tremolo	*	*
8e-/L 8g/ 8b-/	.	.
8e-/ 8g/ 8b-/	8ee-\ 8gg\	.
8e-/ 8g/ 8b-/	(16gg\LL	.
.	16ff\	.
8e-/J 8g/ 8b-/	16aa-\)	.
.	16gg\JJ	.
*Xtremolo	*	*
!!LO:LB:g=original
=6	=6	=6
8r	16gg\LL	.
.	16aa-\	.
*tremolo	*	*
8d/L 8f/ 8b-/	16een\	.
.	16ff\JJ	.
8d/ 8f/ 8b-/	4.b-\ 4.ff\	.
8d/J 8f/ 8b-/	.	.
*Xtremolo	*	*
4d/ 4f/ 4b-/	.	.
!	!LO:SIC:s=8ee-\ 8gg\:v	!
.	8ee\ 8gg\	.
=7	=7	=7
8r	16dd\LL 16ff\	.
.	16ee-\JJ 16gg\	.
8d/ 8f/ 8a-/	4ff\ 4aa-\	.
*tremolo	*	*
8d/L 8f/ 8a-/	.	.
8d/ 8f/ 8a-/	8ff\ 8aa-\	.
8d/ 8f/ 8a-/	8ff\L 8aa-\	.
8d/J 8f/ 8a-/	16gg\L 16bb-\	.
*Xtremolo	*	*
.	16ff\JJ 16aa-\	.
=8	=8	=8
8r	8.aa-\L	.
*tremolo	*	*
8e-/L 8g/ 8b-/	.	.
.	16ee-\Jk 16gg\	.
8e-/ 8g/ 8b-/	4.ee-\ 4.gg\	.
8e-/J 8g/ 8b-/	.	.
*Xtremolo	*	*
4e-/ 4g/ 4b-/	.	.
.	8ff\ 8aa-\	.
=9	=9	=9
*clefF4	*	*
8BB-\ 8B-\	8b-\ 8bb-\	.
4BB-\ 4B-\	4b-\ 4bb-\	.
16G\LL	16gg\LL	.
16E-\JJ	16ee-\JJ	.
8B-\L	8b-\L 8bb-\	.
16B-\L	16gg\L	.
16G\JJ	16ee-\JJ	.
=10	=10	=10
8B-\L	8bb-\L	.
16G\L	16gg\L	.
16E-\JJ	16ee-\JJ	.
8DD/L 8BB-/	8d/L 8b-/	.
8DD/J 8BB-/	8d/J 8b-/	.
4DD/ 4BB-/	4d/ 4b-/	.
=11	=11	=11
!LO:TX:a:t=P:problem=mixed beam	!	!LO:DY:b:t=p&colon;
8AA-/L	(16bn\LL	p
.	16cc\JJ)	.
8A-\	4cc\	.
8A-\	.	.
8A-\J	8cc\	.
8F\L	8.aa-\L	.
8A-\J	.	.
.	16dd\Jk	.
=12	=12	=12
8r	8ff\L	.
8B-\L	8ee-\J	.
8G\	4.g/ 4.ee-/	.
8B-\J	.	.
4G\	.	.
.	8b-\ 8dd-X\	.
=13	=13	=13
16C\LL	16bn\LL	.
16A-\	16cc\JJ	.
16F\	4cc\	.
16A-\JJ	.	.
*rep	*	*
16C\LL	.	.
16A-\	.	.
16F\	16aa-\LL	.
16A-\JJ	16gg\JJ	.
*Xrep	*	*
*rep	*	*
16C\LL	16ff\LL	.
16A-\	16ee-\	.
16F\	16dd\	.
16A-\JJ	16cc\JJ	.
*Xrep	*	*
!!LO:LB:g=original
=14	=14	=14
!LO:TX:a:t=P:problem=mixed beam	!	!
8E-\L	16b-/LL	.
.	16g/	.
8G\	16a-/	.
.	16f/JJ	.
.	8qqg/	.
8B-\	2e-/	.
8BB-/J	.	.
4E-\	.	.
=15||;	=15||;	=15||
*clefG2	*	*
.	16qqee-/LL	.
.	16qqff/JJ	.
8e-/L 8g-X/	4gg-X\	.
8b-/J	.	.
*rep	*	*
8e-/L 8g-/	8.gg-\L	.
8b-/J	.	.
.	16gg-\Jk	.
*Xrep	*	*
*rep	*	*
8e-/L 8g-/	(16gg-\LL	.
.	16ff\	.
8b-/J	16aa-\	.
.	16gg-\JJ)	.
*Xrep	*	*
=16	=16	=16
8d/L 8f/	8.gg-X\L	.
8b-/J	.	.
.	16ff\Jk	.
*rep	*	*
8d/L 8f/	8dd\L 8ff\	.
8b-/J	8dd\J 8ff\	.
*Xrep	*	*
*rep	*	*
8d/L 8f/	8.gg-\L	.
8b-/J	.	.
.	16ff\Jk	.
*Xrep	*	*
=17	=17	=17
8e-/L 8g-X/	4.ee-\	.
8b-/J	.	.
*rep	*	*
8e-/L 8g-/	.	.
8b-/J	8ee-\	.
*Xrep	*	*
*rep	*	*
8e-/L 8g-/	16ee-\LL	.
.	16dd\	.
8b-/J	16gg-X\	.
.	16ff\JJ	.
*Xrep	*	*
=18	=18	=18
8r	(16ee-\LL	.
.	16dd\	.
8B-/ 8d/ 8f/	16ff\)	.
.	16dd\JJ	.
8B-/L 8d/ 8f/	8b-\L	.
8B-/J 8d/ 8f/	8b-\J	.
4B-/ 4d/ 4f/	4b-\	.
=19	=19	=19
*clefF4	*	*
16E-\LL	16ee-\LL	.
16B-\	16ff\JJ	.
16G-X\	4gg-X\	.
16B-\JJ	.	.
*rep	*	*
16E-\LL	.	.
16B-\	.	.
16G-\	8gg-\	.
16B-\JJ	.	.
*Xrep	*	*
*rep	*	*
16E-\LL	(16gg-\LL	.
16B-\	16ff\	.
16G-\	16aa-\)	.
16B-\JJ	16gg-\JJ	.
*Xrep	*	*
=20	=20	=20
16D\LL	16gg-X\LL	.
16B-\	16ff\JJ	.
16F\	4ff\	.
16B-\JJ	.	.
*rep	*	*
16D\LL	.	.
16B-\	.	.
16F\	8ff\	.
16B-\JJ	.	.
*Xrep	*	*
*rep	*	*
16D\LL	(16bb-\LL	.
16B-\	16aa-\	.
16F\	16gg-\)	.
16B-\JJ	16ff\JJ	.
*Xrep	*	*
=21	=21	=21
4.B-\	4.b-\ 4.bb-\	.
16G-X\LL	16gg-X\LL	.
16E-\JJ	16ee-\JJ	.
8B-\L	16bb-\LL	.
.	(16gg-\	.
8G-\J	16ff\	.
.	16ee-\JJ)	.
!!LO:LB:g=original
=22	=22	=22
4BB-/	16ee-\LL	.
.	16dd\	.
.	16cc\	.
.	16b-\JJ	.
8B-\L	8dd\L 8bb-\	.
8An\J	8cc\J 8aan\	.
4B-\	4dd\ 4bb-\	.
=23	=23	=23
8r	4.e-/	.
8GG/L	.	.
8GG/	.	.
8GG/	16g/LL	.
.	16b-/JJ	.
8BB-/	16ee-\LL	.
.	(16dd\	.
8GG/J	16cc\)	.
.	16b-\JJ	.
=24	=24	=24
4BB-/	16b-/LL	.
.	16a-/	.
.	16f/	.
.	16d/JJ	.
!	!LO:TX:a:t=P:problem=mixed beam	!
8r	8B-/L	.
8B-\L	8gg\ 8bb-\	.
8A-\	(8ff\ 8aa-\	.
!	!LO:TX:b:t=al Segno	!
!LO:TX:a:t=[segno]:problem=znak segno na kresce taktowej	!LO:TX:a:t=[segno]:problem=znak segno na kresce taktowej	!
8F\J	8dd\J) 8ff\	.
=25||	=25||	=25||
*>C	*>C	*>C
*M3/4	*M3/4	*
*clefG2	*	*
!	!LO:TX:a:t=Trio	!
!	!LO:TX:a:t=P:problem=początek Trio wygląda jak początek nowego utworu - wpisane klucze, metrum, znaki przy kluczach, w lewej ręce w kolejności E-, BB-, AA-	!
8e-/L	8ee-\L 8gg\	.
8B-/J	8ee-\J 8gg\	.
8e-/L	(8gg\L 8bb-\	.
8B-/J	8ff\J) 8aan\	.
8f/L	(8ff\L	.
8B-/J	8bb-\J)	.
=26	=26	=26
8e-/L	(16ee-\LL	.
.	16ff\	.
8B-/J	16gg\	.
.	16aa-\JJ)	.
8e-/L	(16bb-\LL	.
.	16aan\)	.
8B-/J	(16ccc\	.
.	16bb-\JJ)	.
8d/L	4b-\ 4ff\	.
8B-/J	.	.
!!LO:LB:g=original
=27	=27	=27
8e-/L	8ee-\L 8gg\	.
8B-/J	8ee-\J 8gg\	.
8e-/L	8.gg\L 8.bb-\	.
8B-/J	.	.
.	16ff\Jk 16aan\	.
8d/L	4b-\ 4ff\	.
8B-/J	.	.
=28	=28	=28
!LO:CL:ed	!	!
*clefF4	*	*
!LO:TX:a:t=dol&colon;	!	!
16E-\LL	16ee-\LL	.
16G\JJ	16gg\JJ	.
4B-\	4bb-\	.
16F#\LL	16ff#X\LL	.
16G\JJ	16gg\JJ	.
4E-\	4ee-\	.
=29||;	=29||;	=29||
*clefF4	*	*
16D\LL	8ff'\L	.
16B-\	.	.
16F\	32ee-\LL	.
.	(32dd\	.
16B-\JJ	32cc\)	.
.	32b-\JJJ	.
*rep	*	*
16D\LL	16an/LL	.
16B-\	16b-/J	.
16F\	8b-T/J	.
16B-\JJ	.	.
*Xrep	*	*
*rep	*	*
.	8qqee-/	.
16D\LL	4aa-\	.
16B-\	.	.
16F\	.	.
16B-\JJ	.	.
*Xrep	*	*
=30	=30	=30
16E-\LL	16ee-\LL	.
16B-\	16gg\J	.
16G\	8ggt\J	.
16B-\JJ	.	.
*rep	*	*
16E-\LL	4.ee-\	.
16B-\	.	.
16G\	.	.
16B-\JJ	.	.
*Xrep	*	*
*rep	*	*
16E-\LL	.	.
16B-\	.	.
16G\	8bb-\	.
16B-\JJ	.	.
*Xrep	*	*
=31	=31	=31
8r	8.eee-\L	.
8F\ 8An\	.	.
.	16ccc\Jk	.
*2\right	*	*
*tremolo	*	*
8F\L 8A\	8.aan\L	.
8F\ 8A\	.	.
.	16ff\Jk	.
8F\ 8A\	8gg\L	.
8F\J 8A\	8aan\J	.
*Xtremolo	*	*
=32	=32	=32
4B-\	16bb-\LL	.
.	16aan\	.
.	16ddd\	.
.	16ccc\JJ	.
.	8qqccc/	.
*	*2\right	*
!LO:TX:a:t=P:problem=mixed beam	!LO:TX:b:t=Trio Da Capo	!
8f\L	2bb-\	.
8F/J	.	.
4B-\	.	.
==;	==;	==
*-	*-	*-
!!!system-decoration: [(s1,s2)]
!!!ENC: Zofia Niedbalska
!!!END: 2020-12-05
!!!ENC: Andrzej Borzym
!!!END: 2020-06-19
!!!YEC: Copyright 2022 Narodowy Instytut Fryderyka Chopina (https://polishscores.org)
!!!YEM: License CC-BY-4.0 (https://creativecommons.org/licenses/by/4.0)
